X: 6
T: A Trip to Preston Guild
%C: Mr. Gray
%R: waltz
B: Mr. Gray "24 Country Dances for the Year 1803" p.3 #2
S: http://imslp.org/wiki/24_Country_Dances_for_the_Year_1803_(Various)  2013-12-2
Z: 2013 John Chambers <jc:trillian.mit.edu>
M: 3/8
L: 1/16
K: C
!segno!(ef) |\
g2g2e2 | c2c2c2 | d2defd | B2G2 (ef) |\
g2g2e2 | c2c2c2 | d2({e}dc).d.e | Hc4 :|
|: (GA) |\
.B2(B2c2) | .d2(d2e2) | .f2(f2e2) | d4 (GA) |\
B2(B2c2) | d2(d2e2) | f2(f2e2) | d4 !segno!:|
% - - - - - - - - - - - - - - - - - - - - - - - - -
%%begintext align
%% 1st Cu: set to the 2d Lady & hands 3 round,
%% the same to 2d Gen: lead down the middle,
%% up again, & Allemand & swing Corners.
%%endtext

%%sep 1 1 500
%%sep 1 1 500
